X: 31903
T: Peacock Follow The Hen
R: slip jig
M: 9/8
K: Edorian
def B3 BAB|def B z f ecA|def B3 Bcd|cBA f<af ecA:|
|:def (a2 f) (a2 f)|def (a2 f) ecA|def (a2 f) (a2 f)|gfe f<af ecA:|

